X: 419
T: Bonaparte's Charge
B: jims roots
M:2/2
L:1/8
Q: 1/2=100
K:D
V:1 
|: (d2 | "D"d2) df edef | d2 df "A"edBA | "D"d2 df "A"e2 de | "D"f2A2A2 AB |
"D"d2 df edef | d2 df "A"edBA | "D"d2d2 BAFB | "A"A2 D2 "D"D2 :|
|: dB | "D"A2 {D}F2 {D}F2 F2 | DFED {D}F2 AB | A2F2 EDEG | "A"F2 D2 "D"D2 :|
% abcbook-tune_id 6298c24506e1c28cb7370356


% abcbook-boost 0
% abcbook-tablature 
% abcbook-transpose 
% abcbook-lastupdated 1654178373450
% abcbook-soundfonts 
% abcbook-repeats 1


